static/logos/volkswagen-glyph-color.svg

<svg width="32" height="32" viewBox="0 0 32 32" fill="none" xmlns="http://www.w3.org/2000/svg">
<path fill-rule="evenodd" clip-rule="evenodd" d="M16.0061 29.9998C23.7367 29.9998 30 23.7365 30 16.0061C30 8.26328 23.7367 2 16.0061 2C8.27561 2 2 8.26328 2 16.0061C2 23.7365 8.27561 29.9998 16.0061 29.9998Z" fill="url(#paint0_linear_1261_225)"/>
<path fill-rule="evenodd" clip-rule="evenodd" d="M8.5222 23.3914C9.4043 24.2732 10.4299 24.9985 11.5552 25.5365L8.5222 18.5829L5.9947 12.7882C5.66181 13.7992 5.4892 14.8842 5.4892 16.0061C5.4892 18.8788 6.64815 21.4927 8.5222 23.3914V23.3914ZM23.4898 26.0791C26.5598 23.7982 28.5571 20.1363 28.5571 16.0061C28.5571 11.8758 26.5598 8.214 23.4898 5.92075C21.3938 4.36726 18.8048 3.44257 16.0061 3.44257C13.2073 3.44257 10.6182 4.36726 8.5222 5.92075C5.45221 8.214 3.45486 11.8758 3.45486 16.0061C3.45486 20.1363 5.45221 23.7982 8.5222 26.0791C10.6182 27.6325 13.2073 28.5573 16.0061 28.5573C18.8048 28.5573 21.3938 27.6326 23.4898 26.0791ZM23.4898 8.62087C23.8635 8.99491 24.2058 9.39903 24.5133 9.82914L23.4898 12.1964L19.6309 21.0611L17.6336 16.5116H14.3786L12.3813 21.0611L8.5222 12.1964L7.49887 9.82914C7.80625 9.39899 8.14852 8.99487 8.5222 8.62087C9.16247 7.96716 9.88827 7.40312 10.6798 6.94409L14.3293 15.439H17.6827L21.3322 6.94409C22.1237 7.40312 22.8495 7.96716 23.4898 8.62087V8.62087ZM23.4898 18.5829L26.0173 12.7882C26.3504 13.7992 26.523 14.8842 26.523 16.0061C26.523 18.8787 25.364 21.4927 23.4898 23.3914C22.6078 24.2732 21.5822 24.9985 20.457 25.5365L23.4898 18.5829V18.5829ZM16.0061 19.3967L18.9406 26.0915C17.9874 26.3704 16.9992 26.5115 16.0061 26.5107C15.013 26.5115 14.0249 26.3703 13.0717 26.0915L16.0061 19.3967ZM16.0061 12.8128L19.0269 5.93308C18.0774 5.63718 17.0541 5.48923 16.0061 5.48923C14.9581 5.48923 13.9471 5.63718 12.9854 5.93308L16.0061 12.8128Z" fill="white"/>
<defs>
<linearGradient id="paint0_linear_1261_225" x1="2.00431" y1="2.0043" x2="29.9955" y2="29.9955" gradientUnits="userSpaceOnUse">
<stop stop-color="#2088FA"/>
<stop offset="1" stop-color="#032B5C"/>
</linearGradient>
</defs>
</svg>

<svg xmlns="http://www.w3.org/2000/svg" width="64" height="64" fill="none" viewBox="0 0 32 32"><path fill="url(#a)" fill-rule="evenodd" d="M16.006 30C23.736 30 30 23.736 30 16.006 30 8.263 23.737 2 16.006 2S2 8.263 2 16.006C2 23.736 8.276 30 16.006 30" clip-rule="evenodd"/><path fill="#fff" fill-rule="evenodd" d="M8.522 23.391a11 11 0 0 0 3.033 2.146l-3.033-6.954-2.527-5.795a10.3 10.3 0 0 0-.506 3.218c0 2.873 1.16 5.487 3.033 7.385M23.49 26.08a12.53 12.53 0 0 0 5.067-10.073c0-4.13-1.997-7.792-5.067-10.085a12.53 12.53 0 0 0-7.484-2.478c-2.799 0-5.388.924-7.484 2.478-3.07 2.293-5.067 5.955-5.067 10.085s1.997 7.792 5.067 10.073a12.53 12.53 0 0 0 7.484 2.478c2.799 0 5.388-.924 7.484-2.478m0-17.458a9.7 9.7 0 0 1 1.023 1.208l-1.023 2.367-3.86 8.865-1.996-4.55h-3.255l-1.998 4.55-3.859-8.865L7.5 9.83q.462-.646 1.023-1.208a10.1 10.1 0 0 1 2.158-1.677l3.65 8.495h3.353l3.65-8.495a10.1 10.1 0 0 1 2.157 1.677m0 9.962 2.527-5.795c.333 1.011.506 2.096.506 3.218 0 2.873-1.159 5.487-3.033 7.385a11 11 0 0 1-3.033 2.146zm-7.484.814 2.935 6.695a10.4 10.4 0 0 1-2.935.419c-.993 0-1.981-.14-2.934-.42zm0-6.584 3.02-6.88a10.2 10.2 0 0 0-3.02-.444c-1.048 0-2.059.148-3.02.444z" clip-rule="evenodd"/><defs><linearGradient id="a" x1="2.004" x2="29.995" y1="2.004" y2="29.995" gradientUnits="userSpaceOnUse"><stop stop-color="#2088FA"/><stop offset="1" stop-color="#032B5C"/></linearGradient></defs></svg>
